X: 3264
T: CAVEHILL
%R: jig
B: James Kerr "Merry Melodies" v.3 p.29 #264
Z: 2016 John Chambers <jc:trillian.mit.edu>
M: 6/8
L: 1/8
K: G
|:\
d2B BcB | def gfe | d2B BcB | A2B cBA |\
d2B BcB | def gfe | dBG DEF | G3  G3 :|
|:\
D2G GAG | B2G GAG | E2A ABA | cBA GFE |\
D2G GAG | B2G GAG | dBG DEF | G3  G3 :|

%%sep 1 1 500
%%sep 1 1 500

